X: 376
T: Arrah My Dear Eveleen!
R: march, air
%S: s:2 b:16(8+8)
B: O'Neill's 1850 #376
Z: Chris Falt, cfalt@trytel.com
Q: "Tenderly."
M: C
L: 1/8
K: C
[| c2c>c (cB)BB | (AcBA) ^GE2z | A2A>A (^G<E) zE | A2B>B c2z |\
| B | c2(ec) (cB)(cB) | (AcBA) ^GE2z | A2A>A (cBA^G) | A2B>B c2z2 |]
|| (ABcd) e2ze | (f2ed) eAz2 | A3A f3e | d2c2 B2z2 |\
| e3A A2zc | (BcBA) (^GE2)z | A3A (cBA^G) | A2B>B c2z2 |]
